X:1
T: The Duchess of Buccleuch
C:William Marshall
R:Strathspey
Q: 128
K:F
M:4/4
L:1/16
|:B2|ABc2 F2c2 A2F2 F2B2|ABc2 F2c2 dcBA G2B2|ABc2 F2c2 A2F2 F2C2|D2F2 EFGE F4 F2B2|
ABc2 F2c2 A2F2 F2B2|ABc2 F2c2 dcBA G2B2|ABc2 F2c2 A2F2 F2C2|D2F2 EFGE F4 F2fg|
a2F2 F2a2 b2d2 g2f2|e2c2 d2e2 fefg f2fg|a2F2 F2a2 b2d2 g2f2|e3c d2=B2 c4c4|
C2c2 B2A2 dB3 B4|B,2B2 A2G2 cA3 A4|F3G A2F2 G2A2 B2d2|c3f efge f4f2:|
